assets/Telegram-8cd79fec.svg

<svg width="30" height="30" viewBox="0 0 30 30" fill="none" xmlns="http://www.w3.org/2000/svg">
<path d="M15.0002 30C23.2845 30 30.0002 23.2843 30.0002 15C30.0002 6.71573 23.2845 0 15.0002 0C6.71591 0 0.000183105 6.71573 0.000183105 15C0.000183105 23.2843 6.71591 30 15.0002 30ZM12.5055 18.0509L19.4608 11.7744C19.766 11.5035 19.3941 11.3713 18.9889 11.6171L10.4047 17.0327L6.69686 15.8754C5.89612 15.6302 5.89037 15.08 6.87663 14.6844L21.3254 9.11304C21.9853 8.81344 22.6222 9.27154 22.3703 10.2816L19.9097 21.8769C19.7379 22.7009 19.24 22.898 18.5502 22.5174L14.8019 19.7481L13.0002 21.5C12.7909 21.7035 12.6252 21.875 12.2502 21.875L12.5055 18.0509Z" fill="white"/>
</svg>

<svg xmlns="http://www.w3.org/2000/svg" width="30" height="30" fill="none" viewBox="0 0 30 30"><path fill="#fff" d="M15 30c8.285 0 15-6.716 15-15 0-8.284-6.715-15-15-15C6.716 0 0 6.716 0 15c0 8.284 6.716 15 15 15Zm-2.495-11.95 6.956-6.276c.305-.27-.067-.403-.472-.157l-8.584 5.416-3.708-1.158c-.8-.245-.807-.795.18-1.19l14.448-5.572c.66-.3 1.297.159 1.045 1.169l-2.46 11.595c-.172.824-.67 1.021-1.36.64l-3.748-2.769L13 21.5c-.21.203-.375.375-.75.375l.255-3.824Z"/></svg>
